Adwaita++-Dark/actions/symbolic/mail-mark-notjunk-symbolic.svg

<svg height="16" width="16" xmlns="http://www.w3.org/2000/svg">
  <path d="m5 1-4 4v6l4 4h6l4-4v-6l-4-4zm2 3h2v3l-.25 2h-1.5l-.25-2zm1 5.75c.69 0 1.25.56 1.25 1.25s-.56 1.25-1.25 1.25-1.25-.56-1.25-1.25.56-1.25 1.25-1.25z" fill="#e6ddff" opacity=".3"/>
</svg>

<svg xmlns="http://www.w3.org/2000/svg" width="16" height="16" version="1.1">
 <path style="fill:#E6DDFF;opacity:0.3" d="M 5,1 1,5 V 11 L 5,15 H 11 L 15,11 V 5 L 11,1 Z M 7,4 H 9 V 7 L 8.75,9 H 7.25 L 7,7 Z M 8,9.75 C 8.69,9.75 9.25,10.31 9.25,11 9.25,11.69 8.69,12.25 8,12.25 7.31,12.25 6.75,11.69 6.75,11 6.75,10.31 7.31,9.75 8,9.75 Z"/>
</svg>
